icons/loupe.svg

<svg width="27" height="27" fill="none" xmlns="http://www.w3.org/2000/svg"><path d="M19.25 17h-1.185l-.42-.405A9.707 9.707 0 0 0 20 10.25 9.75 9.75 0 0 0 10.25.5 9.75 9.75 0 0 0 .5 10.25 9.75 9.75 0 0 0 10.25 20a9.707 9.707 0 0 0 6.345-2.355l.405.42v1.185l7.5 7.485 2.235-2.235L19.25 17Zm-9 0a6.741 6.741 0 0 1-6.75-6.75 6.741 6.741 0 0 1 6.75-6.75A6.741 6.741 0 0 1 17 10.25 6.741 6.741 0 0 1 10.25 17Z" fill="#fff"/></svg>

<svg width="27" height="27" viewBox="0 0 27 27" fill="none" xmlns="http://www.w3.org/2000/svg">
<path d="M19.25 17H18.065L17.645 16.595C19.115 14.885 20 12.665 20 10.25C20 4.865 15.635 0.5 10.25 0.5C4.865 0.5 0.5 4.865 0.5 10.25C0.5 15.635 4.865 20 10.25 20C12.665 20 14.885 19.115 16.595 17.645L17 18.065V19.25L24.5 26.735L26.735 24.5L19.25 17ZM10.25 17C6.515 17 3.5 13.985 3.5 10.25C3.5 6.515 6.515 3.5 10.25 3.5C13.985 3.5 17 6.515 17 10.25C17 13.985 13.985 17 10.25 17Z" fill="white"/>
</svg>
